; generated by Slic3r 0.7.1 on 2013-02-25 at 17:37:46

; layer_height = 0.27
; perimeters = 1
; solid_layers = 2
; fill_density = 0.6
; nozzle_diameter = 0.4
; filament_diameter = 2.7
; extrusion_multiplier = 1
; perimeter_speed = 25
; infill_speed = 30
; travel_speed = 150
; extrusion_width_ratio = 0
; scale = 1
; single wall width = 0.48mm

;M104 S200 ; set temperature
G28 ; home all axes
;M109 S200 ; wait for temperature to be reached
G90 ; use absolute coordinates
G21 ; set units to millimeters
;G92 E0 ; reset extrusion distance
;M82 ; use absolute distances for extrusion
G1 Z0.270
G1 X70.540 Y70.720
G1
G1 X71.100 Y70.180
G1 X71.740 Y69.720
G1 X71.960 Y69.580
G1 X72.420 Y69.340
G1 X72.910 Y69.140
G1 X73.410 Y68.980
G1 X73.920 Y68.870
G1 X74.440 Y68.800
G1 X74.960 Y68.780
G1 X125.550 Y68.800
G1 X126.070 Y68.870
G1 X126.580 Y68.980
G1 X127.080 Y69.140
G1 X127.570 Y69.340
G1 X128.030 Y69.580
G1 X128.680 Y70.020
G1 X128.890 Y70.180
G1 X129.810 Y71.100
G1 X130.270 Y71.740
G1 X130.410 Y71.960
G1 X130.650 Y72.420
G1 X130.850 Y72.910
G1 X131.010 Y73.410
G1 X131.120 Y73.920
G1 X131.190 Y74.440
G1 X131.190 Y125.550
G1 X131.120 Y126.070
G1 X131.010 Y126.580
G1 X130.850 Y127.080
G1 X130.650 Y127.570
G1 X130.410 Y128.030
G1 X129.970 Y128.680
G1 X129.810 Y128.890
G1 X128.890 Y129.810
G1 X128.250 Y130.270
G1 X128.030 Y130.410
G1 X127.570 Y130.650
G1 X127.080 Y130.850
G1 X126.580 Y131.010
G1 X126.070 Y131.120
G1 X125.550 Y131.190
G1 X125.030 Y131.210
G28 X0  ; home X axis
G28 Y0 ; home Y axis
M84     ; disable motors
